X: 9
T: Northward Bound
C: Crowfoot: Nadajai (2005)
L: 1/8
M: 4/4
K: G
|: DB, | "G" G,2 B,D GBAG | "C"E2 ED EFGE | "G"DGEG DGEG | DGED "D"A,CB,A, |
         "G" G,2 B,D GBAG | "C"E2 ED EFGE | "G"D3G "D"FGAc | "G"BG"D"AF "G"G2 :|
|: Bc | "G"B G~G2 BGcG | BGFG EGD2 | "C"GEED EFGA | "G"BcBA "D"F2 ED |
        "G"B G~G2 BGcG | BGFG EGD2 | "C"E3F "G"GAGE | "D"DB,A,B, "G"G,2 :|

